packages/web-icons/svgs/minion_pro_3.svg

<svg viewBox="0 0 28 42" xmlns="http://www.w3.org/2000/svg" class="ridi_icon"><path d="M6.4 8.5L7.9 10c2-2.2 4.3-4.6 7.5-4.6s5.1 1.8 5.1 4.9c0 5.1-6.3 7.7-11.4 9.2l.3 1.9c.8-.1 1.9-.4 3.3-.4 3.9 0 7 2.7 7 7.8 0 6-3 9.3-7.2 9.3-4.1 0-6.8-2.7-8.4-4.4-.5-.4-1-.4-1.5 0-.9.6-2 1.8-2 2.8 0 .9.3 1.8 1.5 2.9 1.3 1.2 3.9 2.1 6.6 2.1 3 0 7.7-1.3 11.4-3.9 4.3-3 7-6.6 7-11.2 0-4.8-3.4-7.8-7.6-9v-.2c2.1-1.2 3.6-2 5.1-3.3 1.5-1.2 2.9-2.8 2.9-5.4 0-4.9-4.2-7.8-9-7.8-3.9 0-6.8 1.5-8.7 3.6L6.4 8.5z"/></svg>

<?xml version="1.0" encoding="UTF-8"?>
<svg width="28px" height="42px" viewBox="0 0 28 42" version="1.1" xmlns="http://www.w3.org/2000/svg">
  <!-- Generator: Sketch 41.2 (35397) - http://www.bohemiancoding.com/sketch -->
  <title>minion_pro_3</title>
  <desc>Created with Sketch.</desc>
  <defs></defs>
  <g id="Page-1" stroke="none" stroke-width="1" fill="none" fill-rule="evenodd">
    <g id="minion_pro_3" fill="#000000">
      <g id="레이어_1">
        <path d="M6.4,8.5 L7.9,10 C9.9,7.8 12.2,5.4 15.4,5.4 C18.6,5.4 20.5,7.2 20.5,10.3 C20.5,15.4 14.2,18 9.1,19.5 L9.4,21.4 C10.2,21.3 11.3,21 12.7,21 C16.6,21 19.7,23.7 19.7,28.8 C19.7,34.8 16.7,38.1 12.5,38.1 C8.4,38.1 5.7,35.4 4.1,33.7 C3.6,33.3 3.1,33.3 2.6,33.7 C1.7,34.3 0.6,35.5 0.6,36.5 C0.6,37.4 0.9,38.3 2.1,39.4 C3.4,40.6 6,41.5 8.7,41.5 C11.7,41.5 16.4,40.2 20.1,37.6 C24.4,34.6 27.1,31 27.1,26.4 C27.1,21.6 23.7,18.6 19.5,17.4 L19.5,17.2 C21.6,16 23.1,15.2 24.6,13.9 C26.1,12.7 27.5,11.1 27.5,8.5 C27.5,3.6 23.3,0.7 18.5,0.7 C14.6,0.7 11.7,2.2 9.8,4.3 L6.4,8.5 L6.4,8.5 Z" id="Shape"></path>
      </g>
    </g>
  </g>
</svg>
